images/logo-invert.svg

<svg width="131" height="46" viewBox="0 0 131 46" fill="none" xmlns="http://www.w3.org/2000/svg">
<path d="M15.7109 27.3922H20.9807C22.349 27.3922 23.5571 27.6526 24.6049 28.1734C25.6527 28.6825 26.4662 29.4 27.0456 30.3258C27.625 31.24 27.9147 32.2873 27.9147 33.4677C27.9147 34.6481 27.625 35.7011 27.0456 36.6269C26.4662 37.5411 25.6527 38.2586 24.6049 38.7794C23.5571 39.2885 22.349 39.5431 20.9807 39.5431H15.7109V27.3922ZM20.9068 38.4322C22.0408 38.4322 23.0332 38.2239 23.8837 37.8073C24.7343 37.3791 25.3938 36.7947 25.8622 36.0541C26.3306 35.3019 26.5648 34.4398 26.5648 33.4677C26.5648 32.4956 26.3306 31.6393 25.8622 30.8986C25.3938 30.1464 24.7343 29.562 23.8837 29.1454C23.0332 28.7173 22.0408 28.5032 20.9068 28.5032H17.0792V38.4322H20.9068Z" fill="#F5F5F6"/>
<path d="M36.6453 39.6473C35.3633 39.6473 34.1984 39.3811 33.1506 38.8488C32.1152 38.3049 31.3016 37.5643 30.7099 36.6269C30.1305 35.6896 29.8408 34.6365 29.8408 33.4677C29.8408 32.2989 30.1305 31.2458 30.7099 30.3084C31.3016 29.3711 32.1152 28.6363 33.1506 28.1039C34.1984 27.56 35.3633 27.2881 36.6453 27.2881C37.9273 27.2881 39.0799 27.5542 40.1031 28.0866C41.1385 28.6189 41.9521 29.3595 42.5438 30.3084C43.1355 31.2458 43.4313 32.2989 43.4313 33.4677C43.4313 34.6365 43.1355 35.6953 42.5438 36.6443C41.9521 37.5816 41.1385 38.3165 40.1031 38.8488C39.0799 39.3811 37.9273 39.6473 36.6453 39.6473ZM36.6453 38.5016C37.6685 38.5016 38.593 38.2875 39.4189 37.8594C40.2448 37.4196 40.892 36.8179 41.3604 36.0541C41.8288 35.2787 42.0631 34.4166 42.0631 33.4677C42.0631 32.5188 41.8288 31.6624 41.3604 30.8986C40.892 30.1233 40.2448 29.5215 39.4189 29.0934C38.593 28.6536 37.6685 28.4337 36.6453 28.4337C35.6222 28.4337 34.6915 28.6536 33.8533 29.0934C33.0274 29.5215 32.374 30.1233 31.8933 30.8986C31.4249 31.6624 31.1906 32.5188 31.1906 33.4677C31.1906 34.4166 31.4249 35.2787 31.8933 36.0541C32.374 36.8179 33.0274 37.4196 33.8533 37.8594C34.6915 38.2875 35.6222 38.5016 36.6453 38.5016Z" fill="#F5F5F6"/>
<path d="M59.9409 27.3922V39.5431H58.6281V29.8224L53.5432 37.9982H52.896L47.8111 29.8745V39.5431H46.4983V27.3922H47.6262L53.2473 36.4013L58.813 27.3922H59.9409Z" fill="#F5F5F6"/>
<path d="M69.8162 39.6473C68.5342 39.6473 67.3693 39.3811 66.3215 38.8488C65.2861 38.3049 64.4725 37.5643 63.8808 36.6269C63.3014 35.6896 63.0118 34.6365 63.0118 33.4677C63.0118 32.2989 63.3014 31.2458 63.8808 30.3084C64.4725 29.3711 65.2861 28.6363 66.3215 28.1039C67.3693 27.56 68.5342 27.2881 69.8162 27.2881C71.0983 27.2881 72.2508 27.5542 73.274 28.0866C74.3094 28.6189 75.123 29.3595 75.7147 30.3084C76.3064 31.2458 76.6023 32.2989 76.6023 33.4677C76.6023 34.6365 76.3064 35.6953 75.7147 36.6443C75.123 37.5816 74.3094 38.3165 73.274 38.8488C72.2508 39.3811 71.0983 39.6473 69.8162 39.6473ZM69.8162 38.5016C70.8394 38.5016 71.7639 38.2875 72.5898 37.8594C73.4157 37.4196 74.0629 36.8179 74.5313 36.0541C74.9998 35.2787 75.234 34.4166 75.234 33.4677C75.234 32.5188 74.9998 31.6624 74.5313 30.8986C74.0629 30.1233 73.4157 29.5215 72.5898 29.0934C71.7639 28.6536 70.8394 28.4337 69.8162 28.4337C68.7931 28.4337 67.8624 28.6536 67.0242 29.0934C66.1983 29.5215 65.545 30.1233 65.0642 30.8986C64.5958 31.6624 64.3616 32.5188 64.3616 33.4677C64.3616 34.4166 64.5958 35.2787 65.0642 36.0541C65.545 36.8179 66.1983 37.4196 67.0242 37.8594C67.8624 38.2875 68.7931 38.5016 69.8162 38.5016Z" fill="#F5F5F6"/>
<path d="M83.2379 39.6473C82.2764 39.6473 81.3519 39.5026 80.4643 39.2133C79.5891 38.924 78.9111 38.5421 78.4304 38.0677L78.9666 37.0782C79.435 37.518 80.0575 37.8767 80.8341 38.1545C81.6107 38.4206 82.412 38.5537 83.2379 38.5537C84.3966 38.5537 85.2657 38.357 85.845 37.9635C86.4244 37.5585 86.7141 37.0377 86.7141 36.4013C86.7141 35.9152 86.5538 35.5275 86.2333 35.2382C85.9252 34.9489 85.543 34.7291 85.0869 34.5786C84.6308 34.4166 83.996 34.243 83.1824 34.0579C82.2086 33.8264 81.432 33.6065 80.8526 33.3982C80.2732 33.1784 79.774 32.8486 79.3549 32.4088C78.9481 31.9691 78.7447 31.3731 78.7447 30.6209C78.7447 30.0076 78.9173 29.4521 79.2624 28.9545C79.6076 28.4453 80.1376 28.0403 80.8526 27.7394C81.5676 27.4385 82.4551 27.2881 83.5152 27.2881C84.2549 27.2881 84.976 27.3865 85.6786 27.5832C86.3936 27.7683 87.0099 28.0287 87.5277 28.3643L87.0654 29.3885C86.523 29.0529 85.9436 28.8041 85.3273 28.642C84.7109 28.4685 84.1069 28.3817 83.5152 28.3817C82.3811 28.3817 81.5244 28.59 80.9451 29.0066C80.378 29.4116 80.0945 29.9381 80.0945 30.5862C80.0945 31.0722 80.2486 31.4657 80.5568 31.7666C80.8773 32.0559 81.2717 32.2815 81.7402 32.4435C82.2209 32.594 82.8619 32.7618 83.6632 32.9469C84.6123 33.1668 85.3766 33.3867 85.956 33.6065C86.5477 33.8148 87.0469 34.1389 87.4537 34.5786C87.8605 35.0068 88.0639 35.5912 88.0639 36.3318C88.0639 36.9451 87.8852 37.5064 87.5277 38.0156C87.1825 38.5132 86.6463 38.9124 85.919 39.2133C85.1917 39.5026 84.298 39.6473 83.2379 39.6473Z" fill="#F5F5F6"/>
<path d="M99.1995 33.2767C100.05 33.4503 100.703 33.7975 101.159 34.3182C101.628 34.8274 101.862 35.487 101.862 36.2971C101.862 37.3386 101.449 38.1429 100.623 38.7099C99.8097 39.2654 98.6016 39.5431 96.9991 39.5431H91.0452V27.3922H96.6293C98.0716 27.3922 99.1872 27.6642 99.9761 28.2081C100.777 28.752 101.178 29.5215 101.178 30.5167C101.178 31.1879 100.999 31.7608 100.642 32.2352C100.297 32.6981 99.8158 33.0453 99.1995 33.2767ZM92.4135 28.4511V32.8601H96.5369C97.5847 32.8601 98.3921 32.675 98.9591 32.3047C99.5262 31.9228 99.8097 31.3731 99.8097 30.6556C99.8097 29.9381 99.5262 29.3942 98.9591 29.0239C98.3921 28.642 97.5847 28.4511 96.5369 28.4511H92.4135ZM96.9806 38.4843C98.1394 38.4843 99.0146 38.2991 99.6063 37.9288C100.198 37.5585 100.494 36.9799 100.494 36.193C100.494 34.677 99.3228 33.919 96.9806 33.919H92.4135V38.4843H96.9806Z" fill="#F5F5F6"/>
<path d="M110.643 39.6473C109.361 39.6473 108.196 39.3811 107.149 38.8488C106.113 38.3049 105.3 37.5643 104.708 36.6269C104.129 35.6896 103.839 34.6365 103.839 33.4677C103.839 32.2989 104.129 31.2458 104.708 30.3084C105.3 29.3711 106.113 28.6363 107.149 28.1039C108.196 27.56 109.361 27.2881 110.643 27.2881C111.925 27.2881 113.078 27.5542 114.101 28.0866C115.137 28.6189 115.95 29.3595 116.542 30.3084C117.134 31.2458 117.429 32.2989 117.429 33.4677C117.429 34.6365 117.134 35.6953 116.542 36.6443C115.95 37.5816 115.137 38.3165 114.101 38.8488C113.078 39.3811 111.925 39.6473 110.643 39.6473ZM110.643 38.5016C111.667 38.5016 112.591 38.2875 113.417 37.8594C114.243 37.4196 114.89 36.8179 115.358 36.0541C115.827 35.2787 116.061 34.4166 116.061 33.4677C116.061 32.5188 115.827 31.6624 115.358 30.8986C114.89 30.1233 114.243 29.5215 113.417 29.0934C112.591 28.6536 111.667 28.4337 110.643 28.4337C109.62 28.4337 108.69 28.6536 107.851 29.0934C107.025 29.5215 106.372 30.1233 105.891 30.8986C105.423 31.6624 105.189 32.5188 105.189 33.4677C105.189 34.4166 105.423 35.2787 105.891 36.0541C106.372 36.8179 107.025 37.4196 107.851 37.8594C108.69 38.2875 109.62 38.5016 110.643 38.5016Z" fill="#F5F5F6"/>
<path d="M129.335 39.5431L126.376 35.6375C126.043 35.6722 125.698 35.6896 125.341 35.6896H121.865V39.5431H120.496V27.3922H125.341C126.993 27.3922 128.287 27.7625 129.224 28.5032C130.161 29.2438 130.629 30.2622 130.629 31.5583C130.629 32.5072 130.37 33.3115 129.853 33.9711C129.347 34.6191 128.62 35.0878 127.671 35.3771L130.833 39.5431H129.335ZM125.304 34.596C126.586 34.596 127.566 34.3298 128.244 33.7975C128.922 33.2652 129.261 32.5188 129.261 31.5583C129.261 30.5746 128.922 29.8224 128.244 29.3017C127.566 28.7693 126.586 28.5032 125.304 28.5032H121.865V34.596H125.304Z" fill="#F5F5F6"/>
<path fill-rule="evenodd" clip-rule="evenodd" d="M39.2029 0L78.9673 17.5983V22.7791H77.3594V18.5555L39.2078 1.67095L1.60787 18.5526V44.4906H11.3782V46H0V17.6013L39.2029 0Z" fill="#8DB338"/>
</svg>

<svg width="131" height="46" fill="none" xmlns="http://www.w3.org/2000/svg"><path d="M15.71 27.392h5.27c1.369 0 2.577.26 3.625.781 1.048.51 1.861 1.227 2.44 2.153.58.914.87 1.961.87 3.142 0 1.18-.29 2.233-.87 3.159-.579.914-1.392 1.632-2.44 2.152-1.048.51-2.256.764-3.624.764h-5.27v-12.15zm5.197 11.04c1.134 0 2.126-.208 2.977-.625.85-.428 1.51-1.012 1.978-1.753.469-.752.703-1.614.703-2.586 0-.972-.234-1.829-.703-2.57-.468-.752-1.128-1.336-1.978-1.753-.85-.428-1.843-.642-2.977-.642h-3.828v9.93h3.828zm15.738 1.215c-1.282 0-2.447-.266-3.494-.798-1.036-.544-1.85-1.285-2.441-2.222-.58-.937-.87-1.99-.87-3.16 0-1.168.29-2.221.87-3.159.592-.937 1.405-1.672 2.44-2.204 1.048-.544 2.213-.816 3.495-.816s2.435.266 3.458.799c1.035.532 1.85 1.273 2.44 2.221.593.938.888 1.99.888 3.16 0 1.168-.295 2.227-.887 3.176-.592.938-1.405 1.672-2.44 2.205-1.024.532-2.177.798-3.459.798zm0-1.145c1.023 0 1.948-.215 2.774-.643a4.963 4.963 0 001.941-1.805 4.905 4.905 0 00.703-2.586c0-.95-.234-1.806-.703-2.57a4.8 4.8 0 00-1.941-1.805c-.826-.44-1.75-.66-2.774-.66-1.023 0-1.954.22-2.792.66a4.93 4.93 0 00-1.96 1.806c-.468.763-.702 1.62-.702 2.569 0 .949.234 1.81.702 2.586a5.1 5.1 0 001.96 1.805c.838.428 1.77.643 2.792.643zm23.295-11.11v12.151h-1.312v-9.72l-5.085 8.175h-.647l-5.085-8.123v9.668h-1.313v-12.15h1.128l5.621 9.008 5.566-9.009h1.128zm9.876 12.255c-1.282 0-2.447-.266-3.495-.798-1.035-.544-1.849-1.285-2.44-2.222-.58-.937-.87-1.99-.87-3.16 0-1.168.29-2.221.87-3.159.591-.937 1.405-1.672 2.44-2.204 1.048-.544 2.213-.816 3.495-.816s2.435.266 3.458.799c1.035.532 1.849 1.273 2.44 2.221.592.938.888 1.99.888 3.16 0 1.168-.296 2.227-.887 3.176-.592.938-1.406 1.672-2.441 2.205-1.023.532-2.176.798-3.458.798zm0-1.145c1.023 0 1.948-.215 2.774-.643a4.963 4.963 0 001.941-1.805 4.905 4.905 0 00.703-2.586c0-.95-.234-1.806-.703-2.57a4.8 4.8 0 00-1.941-1.805c-.826-.44-1.75-.66-2.774-.66-1.023 0-1.954.22-2.792.66a4.93 4.93 0 00-1.96 1.806c-.468.763-.702 1.62-.702 2.569 0 .949.234 1.81.702 2.586a5.101 5.101 0 001.96 1.805c.838.428 1.77.643 2.792.643zm13.422 1.145a8.893 8.893 0 01-2.774-.434c-.875-.289-1.553-.67-2.034-1.145l.537-.99c.468.44 1.09.799 1.867 1.076.777.267 1.578.4 2.404.4 1.159 0 2.028-.197 2.607-.59.58-.405.87-.926.87-1.563 0-.486-.161-.873-.482-1.163a3.033 3.033 0 00-1.146-.66c-.456-.161-1.091-.335-1.905-.52-.973-.232-1.75-.452-2.33-.66a4 4 0 01-1.497-.99c-.407-.439-.61-1.035-.61-1.787 0-.613.172-1.169.517-1.666.346-.51.876-.915 1.59-1.216.716-.3 1.603-.45 2.663-.45.74 0 1.461.098 2.164.294.715.185 1.33.446 1.849.781l-.463 1.024a6.36 6.36 0 00-1.738-.746 6.67 6.67 0 00-1.812-.26c-1.134 0-1.99.208-2.57.625-.567.405-.85.931-.85 1.58 0 .485.154.879.462 1.18a3.4 3.4 0 001.183.677c.48.15 1.122.318 1.923.503.95.22 1.714.44 2.293.66a3.66 3.66 0 011.498.972c.407.428.61 1.012.61 1.753 0 .613-.179 1.174-.536 1.684-.346.497-.882.896-1.609 1.197-.727.29-1.621.434-2.681.434zm15.962-6.37c.85.173 1.503.52 1.959 1.041.469.51.703 1.169.703 1.98 0 1.04-.413 1.845-1.239 2.412-.813.555-2.021.833-3.624.833h-5.954v-12.15h5.584c1.443 0 2.558.271 3.347.815.801.544 1.202 1.314 1.202 2.309 0 .67-.179 1.244-.536 1.718-.345.463-.826.81-1.442 1.042zm-6.787-4.826v4.41h4.124c1.048 0 1.855-.186 2.422-.556.567-.382.85-.932.85-1.65 0-.717-.283-1.26-.85-1.631-.567-.382-1.374-.573-2.422-.573h-4.124zm4.568 10.033c1.158 0 2.034-.185 2.625-.555.592-.37.888-.95.888-1.736 0-1.516-1.171-2.274-3.513-2.274h-4.567v4.565h4.567zm13.662 1.163c-1.282 0-2.447-.266-3.494-.798-1.036-.544-1.849-1.285-2.441-2.222-.579-.937-.869-1.99-.869-3.16 0-1.168.29-2.221.869-3.159.592-.937 1.405-1.672 2.441-2.204 1.047-.544 2.212-.816 3.494-.816s2.435.266 3.458.799c1.036.532 1.849 1.273 2.441 2.221.592.938.887 1.99.887 3.16 0 1.168-.295 2.227-.887 3.176-.592.938-1.405 1.672-2.441 2.205-1.023.532-2.176.798-3.458.798zm0-1.145c1.024 0 1.948-.215 2.774-.643a4.958 4.958 0 001.941-1.805 4.9 4.9 0 00.703-2.586c0-.95-.234-1.806-.703-2.57a4.796 4.796 0 00-1.941-1.805c-.826-.44-1.75-.66-2.774-.66-1.023 0-1.953.22-2.792.66a4.93 4.93 0 00-1.96 1.806c-.468.763-.702 1.62-.702 2.569 0 .949.234 1.81.702 2.586a5.102 5.102 0 001.96 1.805c.839.428 1.769.643 2.792.643zm18.692 1.041l-2.959-3.905a9.986 9.986 0 01-1.035.052h-3.476v3.853h-1.369v-12.15h4.845c1.652 0 2.946.37 3.883 1.11.937.74 1.405 1.76 1.405 3.055 0 .95-.259 1.754-.776 2.413-.506.648-1.233 1.117-2.182 1.406l3.162 4.166h-1.498zm-4.031-4.947c1.282 0 2.262-.266 2.94-.798.678-.533 1.017-1.28 1.017-2.24 0-.983-.339-1.736-1.017-2.256-.678-.533-1.658-.799-2.94-.799h-3.439v6.093h3.439z" fill="#F5F5F6"/><path fill-rule="evenodd" clip-rule="evenodd" d="M39.203 0l39.764 17.598v5.181H77.36v-4.224L39.208 1.671l-37.6 16.882V44.49h9.77V46H0V17.601L39.203 0z" fill="#8DB338"/></svg>
